src/assets/filled/TicketExpired.svg

<svg width="24" height="24" viewBox="0 0 24 24"  xmlns="http://www.w3.org/2000/svg">
<path d="M19.8501 12.94C19.8501 13.74 20.5001 14.4 21.3001 14.4C21.6801 14.4 22.0001 14.71 22.0001 15.09C22.0001 18.93 20.8401 20.09 17.0001 20.09H11.7501V18.5C11.7501 18.11 11.4501 17.79 11.0701 17.76C11.0501 17.75 11.0201 17.75 11.0001 17.75C10.5901 17.75 10.2501 18.09 10.2501 18.5V20.09H8.49009C6.61009 20.09 5.64009 18.68 4.76009 16.55L4.59009 16.13C4.45009 15.77 4.62009 15.36 4.98009 15.22C5.35009 15.08 5.64009 14.79 5.79009 14.41C5.95009 14.04 5.95009 13.63 5.80009 13.26C5.48009 12.49 4.60009 12.12 3.82009 12.43C3.65009 12.51 3.45009 12.51 3.28009 12.43C3.11009 12.36 2.98009 12.22 2.90009 12.04L2.75009 11.64C1.26009 8.02 1.91009 6.47 5.53009 4.97L7.98009 3.96C8.34009 3.81 8.75009 3.98 8.89009 4.34L11.0701 9.09C10.6601 9.09 10.2501 9.42 10.2501 9.83V14.17C10.2501 14.58 10.5901 14.92 11.0001 14.92C11.0201 14.92 11.0501 14.92 11.0701 14.91C11.4501 14.88 11.7501 14.56 11.7501 14.17V9.83C11.7501 9.44 11.4501 9.12 11.0701 9.09V4.93H17.0001C20.8401 4.93 22.0001 6.09 22.0001 9.93V10.78C22.0001 11.17 21.6801 11.48 21.3001 11.48C20.5001 11.48 19.8501 12.13 19.8501 12.94Z" />
</svg>

<?xml version="1.0" encoding="UTF-8"?>
<svg width="24" height="24" viewBox="0 0 24 24" xmlns="http://www.w3.org/2000/svg">
 <path d="m19.85 12.94c0 0.8 0.65 1.46 1.45 1.46 0.38 0 0.7 0.31 0.7 0.69 0 3.84-1.16 5-5 5h-5.25v-1.59c0-0.39-0.3-0.71-0.68-0.74-0.02-0.01-0.05-0.01-0.07-0.01-0.41 0-0.75 0.34-0.75 0.75v1.59h-1.76c-1.88 0-2.85-1.41-3.73-3.54l-0.17-0.42c-0.14-0.36 0.03-0.77 0.39-0.91 0.37-0.14 0.66-0.43 0.81-0.81 0.16-0.37 0.16-0.78 0.01-1.15-0.32-0.77-1.2-1.14-1.98-0.83-0.17 0.08-0.37 0.08-0.54 0-0.17-0.07-0.3-0.21-0.38-0.39l-0.15-0.4c-1.49-3.62-0.84-5.17 2.78-6.67l2.45-1.01c0.36-0.15 0.77 0.02 0.91 0.38l2.18 4.75c-0.41 0-0.82 0.33-0.82 0.74v4.34c0 0.41 0.34 0.75 0.75 0.75 0.02 0 0.05 0 0.07-0.01 0.38-0.03 0.68-0.35 0.68-0.74v-4.34c0-0.39-0.3-0.71-0.68-0.74v-4.16h5.93c3.84 0 5 1.16 5 5v0.85c0 0.39-0.32 0.7-0.7 0.7-0.8 0-1.45 0.65-1.45 1.46z"/>
</svg>
